src/assets/svg/rocket.svg

<svg width="24" height="24" viewBox="0 0 24 24" fill="none" xmlns="http://www.w3.org/2000/svg">
<path fill-rule="evenodd" clip-rule="evenodd" d="M20.322 0.75C17.5812 0.749765 14.9438 1.79642 12.949 3.676L11.645 4.906C11.1065 5.41302 10.5919 5.94494 10.103 6.5H5.066C4.76387 6.50014 4.46692 6.57851 4.20406 6.72746C3.9412 6.87642 3.72138 7.09089 3.566 7.35L0.856001 11.864C0.794449 11.9666 0.758341 12.0825 0.750694 12.2019C0.743047 12.3213 0.764082 12.4408 0.812043 12.5504C0.860004 12.66 0.933498 12.7566 1.02639 12.832C1.11928 12.9075 1.22887 12.9596 1.346 12.984L5.917 13.947C5.956 13.996 5.999 14.043 6.046 14.087L8.04 15.96L9.912 17.954C9.956 18.001 10.003 18.044 10.052 18.083L11.015 22.655C11.0397 22.772 11.092 22.8813 11.1675 22.974C11.2431 23.0666 11.3397 23.1399 11.4492 23.1876C11.5588 23.2354 11.6782 23.2562 11.7975 23.2485C11.9168 23.2407 12.0325 23.2046 12.135 23.143L16.649 20.434C16.9081 20.2786 17.1226 20.0588 17.2715 19.7959C17.4205 19.5331 17.4989 19.2361 17.499 18.934V13.896C18.0547 13.4072 18.5873 12.8926 19.095 12.354L20.323 11.05C22.2025 9.0548 23.2488 6.41702 23.248 3.676V2.499C23.2477 2.03504 23.0632 1.59018 22.7351 1.26221C22.4069 0.934237 21.962 0.75 21.498 0.75H20.321H20.322ZM16 15.112C15.667 15.36 15.328 15.599 14.982 15.83L11.589 18.092L12.267 21.315L15.879 19.148C15.9159 19.1258 15.9464 19.0944 15.9676 19.0569C15.9888 19.0194 16 18.9771 16 18.934V15.112ZM5.908 12.412L8.17 9.017C8.4 8.671 8.64 8.332 8.887 8H5.066C5.02293 8.00003 4.98059 8.01118 4.9431 8.03238C4.90561 8.05358 4.87423 8.08411 4.852 8.121L2.685 11.733L5.908 12.412ZM13.978 4.768C15.6944 3.15064 17.9637 2.24993 20.322 2.25H21.499C21.5653 2.25 21.6289 2.27634 21.6758 2.32322C21.7227 2.37011 21.749 2.4337 21.749 2.5V3.676C21.7499 6.03489 20.8495 8.30498 19.232 10.022L18.004 11.325C16.847 12.5533 15.554 13.646 14.15 14.582L10.862 16.774L9.119 14.916C9.10803 14.9043 9.09669 14.893 9.085 14.882L7.226 13.138L9.419 9.848C10.3546 8.44513 11.4466 7.15317 12.674 5.997L13.978 4.768ZM17.5 8C17.5 8.39782 17.342 8.77936 17.0607 9.06066C16.7794 9.34196 16.3978 9.5 16 9.5C15.6022 9.5 15.2206 9.34196 14.9393 9.06066C14.658 8.77936 14.5 8.39782 14.5 8C14.5 7.60218 14.658 7.22064 14.9393 6.93934C15.2206 6.65804 15.6022 6.5 16 6.5C16.3978 6.5 16.7794 6.65804 17.0607 6.93934C17.342 7.22064 17.5 7.60218 17.5 8ZM6.5 21C7.4 20.1 7.4 18.4 6.5 17.5C5.6 16.6 3.9 16.6 3 17.5C1.791 18.709 1.555 21.401 1.51 22.243C1.50779 22.276 1.51266 22.3091 1.52429 22.3401C1.53592 22.3711 1.55404 22.3992 1.57743 22.4226C1.60083 22.446 1.62895 22.4641 1.65992 22.4757C1.69089 22.4873 1.72399 22.4922 1.757 22.49C2.599 22.445 5.291 22.209 6.5 21Z" fill="url(#paint0_linear)"/>
<defs>
<linearGradient id="paint0_linear" x1="11.9986" y1="0.75" x2="11.9986" y2="23.2501" gradientUnits="userSpaceOnUse">
<stop stop-color="#A04F4F"/>
<stop offset="1" stop-color="#FF0000" stop-opacity="0"/>
</linearGradient>
</defs>
</svg>

<svg xmlns="http://www.w3.org/2000/svg" viewBox="0 0 24 24" width="24" height="24"><path fill-rule="evenodd" d="M20.322.75a10.75 10.75 0 00-7.373 2.926l-1.304 1.23A23.743 23.743 0 0010.103 6.5H5.066a1.75 1.75 0 00-1.5.85l-2.71 4.514a.75.75 0 00.49 1.12l4.571.963c.039.049.082.096.129.14L8.04 15.96l1.872 1.994c.044.047.091.09.14.129l.963 4.572a.75.75 0 001.12.488l4.514-2.709a1.75 1.75 0 00.85-1.5v-5.038a23.741 23.741 0 001.596-1.542l1.228-1.304a10.75 10.75 0 002.925-7.374V2.499A1.75 1.75 0 0021.498.75h-1.177zM16 15.112c-.333.248-.672.487-1.018.718l-3.393 2.262.678 3.223 3.612-2.167a.25.25 0 00.121-.214v-3.822zm-10.092-2.7L8.17 9.017c.23-.346.47-.685.717-1.017H5.066a.25.25 0 00-.214.121l-2.167 3.612 3.223.679zm8.07-7.644a9.25 9.25 0 016.344-2.518h1.177a.25.25 0 01.25.25v1.176a9.25 9.25 0 01-2.517 6.346l-1.228 1.303a22.248 22.248 0 01-3.854 3.257l-3.288 2.192-1.743-1.858a.764.764 0 00-.034-.034l-1.859-1.744 2.193-3.29a22.248 22.248 0 013.255-3.851l1.304-1.23zM17.5 8a1.5 1.5 0 11-3 0 1.5 1.5 0 013 0zm-11 13c.9-.9.9-2.6 0-3.5-.9-.9-2.6-.9-3.5 0-1.209 1.209-1.445 3.901-1.49 4.743a.232.232 0 00.247.247c.842-.045 3.534-.281 4.743-1.49z"></path></svg>
